24x24/apps/allegorithmic-Substance_Alchemist.svg

<svg xmlns="http://www.w3.org/2000/svg" width="24" height="24" version="1.1">
 <path style="opacity:0.2" d="M 11.977,3.5001 A 0.97379,0.99703 0 0 0 11.513,3.6343 0.97379,0.99703 0 0 0 11.159,3.9986 H 11.157 L 2.1307,20.004 A 0.97379,0.99703 0 0 0 2.4863,21.366 0.97379,0.99703 0 0 0 2.9733,21.5 H 21.027 A 0.97379,0.99703 0 0 0 21.514,21.366 0.97379,0.99703 0 0 0 21.87,20.004 L 12.843,3.9986 A 0.97379,0.99703 0 0 0 12.841,3.9986 0.97379,0.99703 0 0 0 12.487,3.6343 0.97379,0.99703 0 0 0 12,3.5001 0.97379,0.99703 0 0 0 11.977,3.5001 Z"/>
 <path style="fill:#ff8a18" d="M 11.977,3.0001 A 0.97379,0.99703 0 0 0 11.513,3.1343 0.97379,0.99703 0 0 0 11.159,3.4986 H 11.157 L 2.1307,19.504 A 0.97379,0.99703 0 0 0 2.4863,20.866 0.97379,0.99703 0 0 0 2.9733,21 H 21.027 A 0.97379,0.99703 0 0 0 21.514,20.866 0.97379,0.99703 0 0 0 21.87,19.504 L 12.843,3.4986 A 0.97379,0.99703 0 0 0 12.841,3.4986 0.97379,0.99703 0 0 0 12.487,3.1343 0.97379,0.99703 0 0 0 12,3.0001 0.97379,0.99703 0 0 0 11.977,3.0001 Z"/>
 <path style="fill:#f4f4f7;opacity:0.2" d="M 11.977 3 A 0.97379 0.99703 0 0 0 11.514 3.1348 A 0.97379 0.99703 0 0 0 11.158 3.498 L 11.156 3.498 L 2.1309 19.504 A 0.97379 0.99703 0 0 0 2.0312 20.252 A 0.97379 0.99703 0 0 1 2.1309 20.004 L 11.156 3.998 L 11.158 3.998 A 0.97379 0.99703 0 0 1 11.514 3.6348 A 0.97379 0.99703 0 0 1 11.977 3.5 A 0.97379 0.99703 0 0 1 12 3.5 A 0.97379 0.99703 0 0 1 12.486 3.6348 A 0.97379 0.99703 0 0 1 12.842 3.998 A 0.97379 0.99703 0 0 0 12.844 3.998 L 21.869 20.004 A 0.97379 0.99703 0 0 1 21.969 20.254 A 0.97379 0.99703 0 0 0 21.869 19.504 L 12.844 3.498 A 0.97379 0.99703 0 0 0 12.842 3.498 A 0.97379 0.99703 0 0 0 12.486 3.1348 A 0.97379 0.99703 0 0 0 12 3 A 0.97379 0.99703 0 0 0 11.977 3 z"/>
 <path style="opacity:0.2" d="M 12,8.5 6,11.5 V 14.5 L 14.4,17.3 12,18.5 9,17 V 16.5 L 6,15.5 V 18.5 L 12,21.5 18,18.5 V 15.5 L 9.6,12.7 12,11.5 15,13 V 13.5 L 18,14.5 V 11.5 Z"/>
 <path style="fill:#f4f4f7" d="M 12,8 6,11 V 14 L 14.4,16.8 12,18 9,16.5 V 16 L 6,15 V 18 L 12,21 18,18 V 15 L 9.6,12.2 12,11 15,12.5 V 13 L 18,14 V 11 Z"/>
</svg>

<svg xmlns="http://www.w3.org/2000/svg" width="24" height="24"><path style="opacity:.2" d="M11.977 3.5a.974.997 0 0 0-.464.134.974.997 0 0 0-.354.365h-.002L2.131 20.004a.974.997 0 0 0 .355 1.362.974.997 0 0 0 .487.134h18.054a.974.997 0 0 0 .487-.134.974.997 0 0 0 .356-1.362L12.843 3.999a.974.997 0 0 0-.002 0 .974.997 0 0 0-.354-.365A.974.997 0 0 0 12 3.5a.974.997 0 0 0-.023 0z"/><path style="fill:#ff8a18" d="M11.977 3a.974.997 0 0 0-.464.134.974.997 0 0 0-.354.365h-.002L2.131 19.504a.974.997 0 0 0 .355 1.362.974.997 0 0 0 .487.134h18.054a.974.997 0 0 0 .487-.134.974.997 0 0 0 .356-1.362L12.843 3.499a.974.997 0 0 0-.002 0 .974.997 0 0 0-.354-.365A.974.997 0 0 0 12 3a.974.997 0 0 0-.023 0z"/><path style="fill:#f4f4f7;opacity:.2" d="M11.977 3a.974.997 0 0 0-.463.135.974.997 0 0 0-.356.363h-.002L2.131 19.504a.974.997 0 0 0-.1.748.974.997 0 0 1 .1-.248l9.025-16.006h.002a.974.997 0 0 1 .356-.363.974.997 0 0 1 .463-.135.974.997 0 0 1 .023 0 .974.997 0 0 1 .486.135.974.997 0 0 1 .356.363.974.997 0 0 0 .002 0l9.025 16.006a.974.997 0 0 1 .1.25.974.997 0 0 0-.1-.75L12.844 3.498a.974.997 0 0 0-.002 0 .974.997 0 0 0-.356-.363A.974.997 0 0 0 12 3a.974.997 0 0 0-.023 0z"/><path style="opacity:.2" d="m12 8.5-6 3v3l8.4 2.8-2.4 1.2L9 17v-.5l-3-1v3l6 3 6-3v-3l-8.4-2.8 2.4-1.2 3 1.5v.5l3 1v-3z"/><path style="fill:#f4f4f7" d="m12 8-6 3v3l8.4 2.8L12 18l-3-1.5V16l-3-1v3l6 3 6-3v-3l-8.4-2.8L12 11l3 1.5v.5l3 1v-3z"/></svg>
